X: 10411
M: 2/4
L: 1/16
K: Cm
[|\
vCCCC C2E2 | G2A2G2E2 | CCCC C2E2 | G2A2G2E2 |\
cccc c2e2 | g2a2g2e2 | cccc c2e2 | g2a2g2e2 |\
gggg g2a2 | gggg g2^f2 | g2f2e2d2 | c2z2 c2z2 ||[K:C]
ve4 (.e3.a) | g4 (.g3.c) | v(d4 ^c3)vd | u(e4 c3)uc |\
e4 (.e3.a) | g4 (.g3.e) | "_>"g4 "_>"^f4 | "_>"e4 "_>"f4 |
e4 (.e3.a) | g4 ( .g3.A) | v(d4 ^c3)vd | u(e4 c3)uc |\


